assets/images/brand1.svg

<svg width="104" height="34" viewBox="0 0 104 34" fill="none" xmlns="http://www.w3.org/2000/svg">
<path d="M9.20483 0.34375V0.48826L8.59852 0.632769V7.03564L9.20483 7.18014V7.32466H6.33037V7.18014L6.93671 7.03564V1.57764L4.5563 7.4247H4.25311L1.16531 1.57764V6.88001L1.97375 7.18014V7.32466H0.0537109V7.18014L0.862155 6.88001V0.632769L0.255813 0.48826V0.34375H1.51339C1.70427 0.34375 1.8727 0.365982 2.00744 0.410446C2.14218 0.45491 2.27694 0.510491 2.37799 0.588303C2.49028 0.666116 2.5801 0.755046 2.6587 0.855091C2.7373 0.955136 2.80467 1.07741 2.87204 1.19969L5.0728 5.36822L6.75705 1.19969C6.81319 1.05518 6.86935 0.932903 6.94795 0.832859C7.01532 0.732814 7.10512 0.643885 7.20618 0.566073C7.30724 0.48826 7.43077 0.432678 7.57674 0.39933C7.7227 0.365981 7.90235 0.34375 8.12691 0.34375H9.20483Z" fill="#3C2B4A"/>
<path d="M12.7978 2.19922C13.2133 2.19922 13.5951 2.2548 13.9207 2.37708C14.2463 2.49935 14.527 2.67721 14.7628 2.89953C14.9986 3.13297 15.167 3.41087 15.2905 3.73324C15.4141 4.0556 15.4702 4.43355 15.4702 4.84485C15.4702 5.25614 15.4141 5.63409 15.2905 5.95646C15.167 6.27882 14.9874 6.55673 14.7628 6.79016C14.527 7.0236 14.2463 7.19034 13.9207 7.31262C13.5951 7.4349 13.2133 7.49048 12.7978 7.49048C12.3824 7.49048 12.0006 7.4349 11.675 7.31262C11.3494 7.19034 11.0687 7.01248 10.8329 6.79016C10.5971 6.55673 10.4287 6.27882 10.3051 5.95646C10.1816 5.63409 10.1255 5.25614 10.1255 4.84485C10.1255 4.43355 10.1816 4.0556 10.3051 3.73324C10.4287 3.41087 10.6083 3.13297 10.8329 2.89953C11.0687 2.66609 11.3494 2.49935 11.675 2.37708C12.0006 2.2548 12.3712 2.19922 12.7978 2.19922ZM12.7978 7.3015C12.9101 7.3015 13.0224 7.26816 13.1459 7.19034C13.2582 7.11253 13.3593 6.99025 13.4491 6.80128C13.5389 6.61231 13.6175 6.36775 13.6737 6.0565C13.7298 5.73413 13.7635 5.33396 13.7635 4.85596C13.7635 4.36686 13.7298 3.96668 13.6737 3.65543C13.6175 3.34418 13.5389 3.08851 13.4491 2.91065C13.3593 2.73279 13.2582 2.5994 13.1459 2.52159C13.0336 2.44377 12.9214 2.41043 12.7978 2.41043C12.6856 2.41043 12.5733 2.44377 12.4498 2.52159C12.3375 2.5994 12.2364 2.72167 12.1466 2.91065C12.0568 3.09962 11.9782 3.34418 11.922 3.65543C11.8659 3.97779 11.8322 4.37797 11.8322 4.85596C11.8322 5.34507 11.8659 5.74525 11.922 6.0565C11.9782 6.36775 12.0568 6.62342 12.1466 6.80128C12.2364 6.97914 12.3375 7.11253 12.4498 7.19034C12.5621 7.25704 12.6743 7.3015 12.7978 7.3015Z" fill="#3C2B4A"/>
<path d="M20.3772 0.34375C20.9835 0.34375 21.2867 0.643884 21.2867 1.24415V7.04675L21.893 7.19126V7.33577H20.9835C20.7365 7.33577 20.5456 7.30242 20.3996 7.22461C20.2537 7.1468 20.1301 7.05787 20.0515 6.96894C19.9505 6.85778 19.8719 6.72439 19.827 6.59099C19.7372 6.76885 19.6249 6.91336 19.4901 7.04675C19.3778 7.15791 19.2206 7.25796 19.0298 7.358C18.8389 7.45805 18.6143 7.50251 18.356 7.50251C18.0641 7.50251 17.7946 7.44693 17.5476 7.33577C17.2894 7.22461 17.076 7.05787 16.8964 6.83555C16.7167 6.61322 16.5595 6.33532 16.4585 6.01296C16.3462 5.67947 16.3013 5.30153 16.3013 4.85688C16.3013 4.41224 16.3574 4.03429 16.4585 3.70081C16.5708 3.36733 16.7167 3.10054 16.9188 2.87822C17.1097 2.6559 17.3455 2.48916 17.615 2.37799C17.8845 2.26683 18.1876 2.21125 18.5245 2.21125C18.7042 2.21125 18.8613 2.23348 19.0073 2.26683C19.1533 2.3113 19.2768 2.35576 19.3778 2.41134C19.5013 2.46692 19.6024 2.53362 19.6922 2.61143V0.666118L19.0859 0.521607V0.377099H20.3772V0.34375ZM19.6698 2.90045C19.5912 2.82264 19.5238 2.75594 19.434 2.70036C19.3554 2.64478 19.2768 2.60032 19.187 2.55585C19.0971 2.51139 19.0073 2.50027 18.9063 2.50027C18.7827 2.50027 18.6592 2.53362 18.5469 2.60032C18.4347 2.66701 18.3448 2.77817 18.255 2.94491C18.1764 3.11166 18.109 3.35621 18.0641 3.65634C18.0192 3.96759 17.9968 4.35666 17.9968 4.84577C17.9968 5.32376 18.0192 5.7017 18.0641 6.00184C18.109 6.30197 18.1652 6.53541 18.2438 6.70215C18.3112 6.86889 18.3898 6.99117 18.4908 7.04675C18.5806 7.10233 18.6705 7.13568 18.7603 7.13568C18.9175 7.13568 19.0522 7.09122 19.1645 7.0134C19.2768 6.93559 19.3666 6.83555 19.4452 6.7355C19.535 6.61322 19.6137 6.47983 19.681 6.33532V2.90045H19.6698Z" fill="#3C2B4A"/>
<path d="M25.2724 7.5022C24.4078 7.5022 23.7342 7.26876 23.2626 6.80188C22.7798 6.33501 22.5439 5.67916 22.5439 4.85657C22.5439 4.44527 22.6001 4.06732 22.7236 3.74496C22.8471 3.42259 23.0156 3.14469 23.2289 2.91125C23.4422 2.67781 23.7005 2.51107 24.0149 2.38879C24.318 2.26652 24.6549 2.21094 25.0254 2.21094C25.4072 2.21094 25.744 2.26652 26.036 2.36656C26.3392 2.47772 26.5862 2.62223 26.7995 2.80009C27.0128 2.97795 27.17 3.18915 27.2823 3.43371C27.3946 3.67826 27.4507 3.93393 27.4507 4.21183C27.4507 4.30076 27.4508 4.38969 27.4395 4.45639C27.4283 4.52308 27.4171 4.58978 27.4058 4.64536C27.3834 4.71206 27.3721 4.76764 27.3497 4.8121C27.0577 4.86768 26.7434 4.92326 26.4065 4.95661C26.1258 5.00108 25.8002 5.03442 25.4296 5.05666C25.0591 5.07889 24.6773 5.10112 24.2731 5.10112C24.2731 5.51242 24.3068 5.85702 24.3629 6.13492C24.4191 6.41282 24.5089 6.63514 24.61 6.79077C24.7222 6.95751 24.8458 7.06867 24.9917 7.13537C25.1377 7.20206 25.3061 7.23541 25.4746 7.23541C25.6767 7.23541 25.8675 7.20206 26.0472 7.12425C26.2268 7.04644 26.384 6.95751 26.5076 6.83523C26.6423 6.71295 26.7434 6.56845 26.822 6.41282C26.9006 6.25719 26.9342 6.10157 26.9342 5.93483H27.1813C27.1813 6.13492 27.1364 6.32389 27.0465 6.51286C26.9567 6.70184 26.822 6.86858 26.6535 7.01309C26.4851 7.1576 26.283 7.26876 26.0472 7.35769C25.8226 7.45773 25.5644 7.5022 25.2724 7.5022ZM24.2619 4.84545C24.4865 4.84545 24.6886 4.84545 24.8682 4.83434C25.0479 4.82322 25.1938 4.8121 25.3174 4.80099C25.4633 4.78987 25.5756 4.76764 25.6767 4.75652C25.6879 4.68982 25.7104 4.61201 25.7216 4.5342C25.7328 4.45639 25.744 4.37857 25.7553 4.28965C25.7665 4.20072 25.7665 4.10067 25.7665 4.00063C25.7665 3.70049 25.744 3.44482 25.6991 3.24473C25.6542 3.04464 25.5981 2.8779 25.5195 2.74451C25.4521 2.62223 25.3735 2.52219 25.2724 2.47772C25.1714 2.43326 25.0928 2.39991 25.003 2.39991C24.9131 2.39991 24.8233 2.43326 24.7335 2.49996C24.6437 2.56665 24.5651 2.68893 24.4865 2.85567C24.4191 3.03353 24.3517 3.27808 24.3068 3.60045C24.2619 3.92282 24.2619 4.33411 24.2619 4.84545Z" fill="#3C2B4A"/>
<path d="M31.6951 2.54533C31.493 2.54533 31.3134 2.5898 31.1562 2.66761C30.999 2.74542 30.8642 2.84547 30.752 2.94551C30.6284 3.06779 30.5274 3.20119 30.4263 3.34569V7.04735L31.0327 7.19186V7.33637H28.2031V7.19186L28.8095 7.04735V2.64538L28.2031 2.50087V2.35636H29.1126C29.3484 2.35636 29.5393 2.40083 29.6965 2.47864C29.8425 2.55645 29.966 2.64538 30.0558 2.73431C30.1569 2.84547 30.2355 2.96775 30.2804 3.10114C30.3814 2.95663 30.5049 2.82324 30.6509 2.70096C30.7744 2.60092 30.9316 2.51199 31.1225 2.42306C31.3134 2.33413 31.5267 2.30078 31.785 2.30078C32.1443 2.30078 32.4138 2.38971 32.5934 2.54533C32.7731 2.71208 32.8517 2.94551 32.8517 3.24565C32.8517 3.46797 32.7843 3.65694 32.6496 3.79034C32.5148 3.92373 32.3239 3.99043 32.0994 3.99043C32.0432 3.99043 31.9983 3.99043 31.9422 3.99043C31.886 3.99043 31.8523 3.97931 31.8187 3.97931C31.7737 3.96819 31.7288 3.96819 31.6951 3.94596V2.54533Z" fill="#3C2B4A"/>
<path d="M37.197 3.84575C37.197 3.62343 37.1745 3.42334 37.1296 3.2566C37.0847 3.08986 37.0286 2.95646 36.95 2.85642C36.8826 2.74526 36.804 2.66744 36.703 2.62298C36.6132 2.57852 36.5233 2.54517 36.4335 2.54517C36.2763 2.54517 36.1416 2.58963 36.0293 2.66745C35.917 2.74526 35.8159 2.8453 35.7486 2.94535C35.6587 3.06762 35.5913 3.20102 35.524 3.34553V7.04719L36.1303 7.19169V7.3362H33.3008V7.19169L33.9071 7.04719V2.64521L33.3008 2.5007V2.35619H34.2103C34.4461 2.35619 34.6369 2.40066 34.7941 2.47847C34.9401 2.55628 35.0636 2.64521 35.1535 2.73414C35.2545 2.8453 35.3331 2.96758 35.378 3.10097C35.4678 2.93423 35.5801 2.77861 35.7149 2.64521C35.8272 2.53405 35.9843 2.43401 36.164 2.33396C36.3437 2.23392 36.5794 2.18945 36.8489 2.18945C37.1409 2.18945 37.4104 2.23392 37.6462 2.33396C37.8932 2.42289 38.0953 2.55629 38.2637 2.70079C38.4321 2.85642 38.5669 3.02316 38.6679 3.22325C38.769 3.42334 38.8139 3.62343 38.8139 3.83463V7.03607L39.4202 7.18058V7.32509H38.1065C37.5002 7.32509 37.197 7.02495 37.197 6.42468V3.84575Z" fill="#3C2B4A"/>
<path d="M1.12061 14.3605V13.9492H8.9243V14.3605L7.28497 14.7718V23.1645H13.1686V14.7718L11.5293 14.3605V13.9492H19.333V14.3605L17.6937 14.7718V32.1129L19.333 32.5242V32.9355H11.5293V32.5131L13.1686 32.1018V23.8425H7.28497V32.1018L8.9243 32.5131V32.9244H1.12061V32.5131L2.75994 32.1018V14.7607L1.12061 14.3605Z" fill="#3C2B4A"/>
<path d="M29.0343 18.9629C30.1683 18.9629 31.1789 19.1296 32.0772 19.452C32.9754 19.7744 33.7277 20.2524 34.3565 20.8749C34.9853 21.4974 35.4681 22.2533 35.7937 23.1425C36.1194 24.0318 36.2878 25.0323 36.2878 26.155C36.2878 27.2777 36.1194 28.2782 35.7937 29.1675C35.4681 30.0567 34.9853 30.8015 34.3565 31.424C33.7277 32.0465 32.9642 32.5245 32.0772 32.8469C31.1789 33.1693 30.1683 33.336 29.0343 33.336C27.9002 33.336 26.8897 33.1693 25.9914 32.8469C25.0931 32.5245 24.3408 32.0465 23.712 31.424C23.0833 30.8015 22.6004 30.0456 22.2748 29.1675C21.9492 28.2782 21.7808 27.2777 21.7808 26.155C21.7808 25.0323 21.9492 24.0318 22.2748 23.1425C22.6004 22.2533 23.0833 21.5085 23.712 20.8749C24.3408 20.2412 25.1044 19.7744 25.9914 19.452C26.8897 19.1296 27.9002 18.9629 29.0343 18.9629ZM29.0343 32.7802C29.3487 32.7802 29.6519 32.6801 29.9663 32.4801C30.2807 32.28 30.5501 31.9354 30.7971 31.4351C31.0442 30.9349 31.2463 30.2568 31.4035 29.4009C31.5607 28.545 31.6393 27.4556 31.6393 26.1328C31.6393 24.81 31.5607 23.7206 31.4035 22.8646C31.2463 22.0087 31.0442 21.3306 30.7971 20.8304C30.5501 20.3302 30.2694 19.9856 29.9663 19.7855C29.6631 19.5854 29.3487 19.4853 29.0343 19.4853C28.7199 19.4853 28.4167 19.5854 28.1023 19.7855C27.7879 19.9856 27.5184 20.3302 27.2714 20.8304C27.0244 21.3306 26.8223 22.0087 26.6651 22.8646C26.5079 23.7206 26.4293 24.81 26.4293 26.1328C26.4293 27.4556 26.5079 28.545 26.6651 29.4009C26.8223 30.2568 27.0244 30.9349 27.2714 31.4351C27.5184 31.9354 27.7992 32.28 28.1023 32.4801C28.4167 32.6801 28.7199 32.7802 29.0343 32.7802Z" fill="#3C2B4A"/>
<path d="M56.8018 23.4323C56.8018 22.7876 56.7456 22.2318 56.6334 21.7982C56.5211 21.3647 56.3863 20.9979 56.2067 20.72C56.027 20.4421 55.8361 20.242 55.634 20.1086C55.4207 19.9863 55.2186 19.9196 55.0165 19.9196C54.6684 19.9196 54.3652 20.0308 54.0957 20.2531C53.8263 20.4754 53.6017 20.7311 53.3996 20.9979C53.1862 21.3203 52.9841 21.6871 52.8269 22.0761V32.1029L54.4775 32.5142V32.9255H46.8197V32.5142L48.4591 32.1029V23.4323C48.4591 22.7876 48.4029 22.2318 48.2906 21.7982C48.1784 21.3647 48.0436 20.9979 47.864 20.72C47.6843 20.4421 47.4935 20.242 47.2913 20.1086C47.078 19.9863 46.8759 19.9196 46.6738 19.9196C46.3257 19.9196 46.0225 20.0308 45.7531 20.2531C45.4836 20.4754 45.259 20.7311 45.0569 20.9979C44.8323 21.3203 44.6414 21.6871 44.4842 22.0761V32.1029L46.1236 32.5142V32.9255H38.4658V32.5142L40.1052 32.1029V20.1864L38.4658 19.7751V19.3638H40.9248C41.5649 19.3638 42.0926 19.475 42.4968 19.6862C42.9123 19.8974 43.2267 20.1419 43.4737 20.3865C43.7432 20.6977 43.9453 21.0312 44.08 21.3869C44.3158 20.9312 44.6077 20.531 44.9558 20.1642C45.2702 19.8529 45.652 19.575 46.1011 19.3194C46.5615 19.0637 47.1117 18.9414 47.7742 18.9414C48.8633 18.9414 49.8177 19.186 50.6037 19.664C51.4009 20.1419 52.0073 20.7644 52.4227 21.5203C52.6585 21.0535 52.9504 20.6311 53.2985 20.242C53.6129 19.9196 53.9947 19.6195 54.4438 19.3527C54.9042 19.0859 55.4544 18.9414 56.1168 18.9414C56.8691 18.9414 57.5428 19.0637 58.1716 19.2971C58.7892 19.5306 59.3282 19.8529 59.7773 20.2642C60.2264 20.6755 60.5745 21.1424 60.8215 21.6871C61.0685 22.2318 61.1921 22.8098 61.1921 23.4212V32.0917L62.8314 32.503V32.9143H59.272C57.6327 32.9143 56.813 32.1029 56.813 30.4799V23.4323H56.8018Z" fill="#3C2B4A"/>
<path d="M71.859 33.3243C69.5235 33.3243 67.7045 32.6907 66.4132 31.4123C65.122 30.134 64.4707 28.3887 64.4707 26.1433C64.4707 25.0206 64.6391 24.0201 64.9648 23.1308C65.2904 22.2415 65.7507 21.4968 66.3346 20.8631C66.9185 20.2406 67.6259 19.7626 68.4568 19.4403C69.2877 19.1179 70.1972 18.9512 71.174 18.9512C72.1958 18.9512 73.1166 19.0957 73.925 19.3847C74.7335 19.6737 75.4296 20.0628 75.991 20.5519C76.5524 21.041 76.9904 21.619 77.2935 22.2749C77.5967 22.9307 77.7427 23.631 77.7427 24.3758C77.7427 24.6315 77.7314 24.8538 77.6977 25.0428C77.664 25.2318 77.6416 25.3985 77.5967 25.543C77.5405 25.7209 77.4956 25.8765 77.4619 25.9988C76.6535 26.1655 75.8114 26.2989 74.9131 26.4101C74.1496 26.5212 73.2625 26.6102 72.2632 26.6991C71.2639 26.7769 70.2084 26.8214 69.1193 26.8214C69.1193 27.9441 69.1979 28.8778 69.3663 29.6226C69.5347 30.3674 69.7593 30.9677 70.0512 31.4123C70.3431 31.857 70.6912 32.1682 71.0954 32.3572C71.4997 32.5461 71.9376 32.6462 72.4092 32.6462C72.9594 32.6462 73.4759 32.5461 73.9587 32.3461C74.4415 32.146 74.857 31.8792 75.2163 31.5457C75.5756 31.2122 75.8563 30.8343 76.0696 30.4119C76.283 29.9894 76.384 29.5559 76.384 29.1224H77.0689C77.0689 29.6671 76.9454 30.1895 76.6984 30.6898C76.4514 31.2011 76.1033 31.6457 75.6429 32.0348C75.1826 32.4239 74.6436 32.7351 74.0036 32.9686C73.3524 33.202 72.6337 33.3243 71.859 33.3243ZM69.1193 26.1433C69.7368 26.1433 70.287 26.1322 70.7586 26.0988C71.2302 26.0655 71.6344 26.0432 71.96 26.0099C72.3418 25.9765 72.6674 25.9321 72.9481 25.8765C72.9818 25.6986 73.0267 25.4985 73.0829 25.2762C73.1166 25.0761 73.1502 24.8538 73.1727 24.6093C73.1952 24.3647 73.2176 24.109 73.2176 23.8422C73.2176 23.0308 73.1502 22.3527 73.0267 21.7969C72.9032 21.2411 72.7348 20.7964 72.5439 20.4518C72.353 20.1072 72.1285 19.8627 71.8927 19.7182C71.6457 19.5737 71.3986 19.4959 71.1628 19.4959C70.927 19.4959 70.68 19.5848 70.433 19.7515C70.1859 19.9294 69.9726 20.2518 69.7817 20.7297C69.5909 21.2077 69.4337 21.8858 69.2989 22.7529C69.1866 23.6199 69.1193 24.7538 69.1193 26.1433Z" fill="#3C2B4A"/>
<path d="M91.1832 32.6471V21.6533L81.3696 13.9609V32.6471H91.1832Z" fill="#3C2B4A"/>
<path d="M103.321 32.6471V21.6533L93.6646 13.9609V32.6471H103.321Z" fill="#3C2B4A"/>
</svg>

<svg width="104" height="34" fill="none" xmlns="http://www.w3.org/2000/svg"><path d="M9.205.344v.144l-.606.145v6.403l.606.144v.145H6.33V7.18l.607-.144V1.578l-2.38 5.847h-.304L1.165 1.578V6.88l.809.3v.145H.054V7.18l.808-.3V.633L.256.488V.344h1.257c.191 0 .36.022.494.066a1.269 1.269 0 0 1 .652.445c.078.1.146.222.213.345l2.2 4.168L6.758 1.2c.056-.145.112-.267.19-.367.068-.1.158-.19.26-.267A.943.943 0 0 1 7.576.4c.146-.033.325-.055.55-.055h1.078ZM12.798 2.2c.415 0 .797.055 1.123.177.325.122.606.3.842.523.236.233.404.51.527.833.124.323.18.7.18 1.112 0 .411-.056.79-.18 1.111-.123.323-.303.6-.527.834-.236.234-.517.4-.842.523a3.214 3.214 0 0 1-1.123.177c-.416 0-.797-.055-1.123-.177a2.498 2.498 0 0 1-.842-.523 2.306 2.306 0 0 1-.528-.834c-.123-.322-.18-.7-.18-1.111 0-.411.057-.79.18-1.112.124-.322.303-.6.528-.833.236-.234.516-.4.842-.523.326-.122.696-.178 1.123-.178Zm0 5.101a.64.64 0 0 0 .348-.11.947.947 0 0 0 .303-.39 2.97 2.97 0 0 0 .225-.745c.056-.322.09-.722.09-1.2 0-.49-.034-.89-.09-1.2a2.83 2.83 0 0 0-.225-.745c-.09-.178-.19-.312-.303-.39a.588.588 0 0 0-.348-.11.64.64 0 0 0-.348.11.947.947 0 0 0-.303.39 2.97 2.97 0 0 0-.225.744c-.056.323-.09.723-.09 1.201 0 .49.034.89.09 1.2.056.312.135.567.225.745.09.178.19.312.303.39a.677.677 0 0 0 .348.11ZM20.377.344c.607 0 .91.3.91.9v5.803l.606.144v.145h-.91c-.247 0-.437-.034-.583-.111a1.275 1.275 0 0 1-.348-.256 1.092 1.092 0 0 1-.225-.378c-.09.178-.202.322-.337.456-.112.11-.27.211-.46.311-.191.1-.416.145-.674.145-.292 0-.561-.056-.808-.167a1.678 1.678 0 0 1-.652-.5c-.18-.223-.337-.5-.438-.823-.112-.334-.157-.711-.157-1.156 0-.445.056-.823.158-1.156.112-.334.258-.6.46-.823.19-.222.427-.389.696-.5a2.365 2.365 0 0 1 1.392-.111c.146.044.27.089.37.144.124.056.225.123.315.2V.666l-.606-.144V.377h1.291V.344ZM19.67 2.9a1.793 1.793 0 0 0-.483-.345.605.605 0 0 0-.28-.055.702.702 0 0 0-.36.1c-.112.067-.202.178-.292.345a2.667 2.667 0 0 0-.19.711c-.046.312-.068.7-.068 1.19 0 .478.022.856.067 1.156.045.3.101.533.18.7.067.167.146.29.247.345.09.055.18.089.27.089a.695.695 0 0 0 .404-.123c.112-.077.202-.177.28-.277a2.35 2.35 0 0 0 .236-.4V2.9h-.011ZM25.272 7.502c-.864 0-1.538-.233-2.01-.7-.482-.467-.718-1.123-.718-1.945 0-.412.056-.79.18-1.112a2.6 2.6 0 0 1 .505-.834c.213-.233.472-.4.786-.522.303-.122.64-.178 1.01-.178.382 0 .719.056 1.011.156.303.11.55.255.763.433a1.83 1.83 0 0 1 .651 1.412c0 .089 0 .178-.01.244l-.034.19c-.023.066-.034.122-.056.166-.292.056-.607.111-.944.145-.28.044-.606.077-.976.1-.37.022-.753.044-1.157.044 0 .411.034.756.09 1.034.056.278.146.5.247.656a.925.925 0 0 0 .382.344c.146.067.314.1.483.1.202 0 .392-.033.572-.11a1.472 1.472 0 0 0 .775-.712c.079-.156.112-.311.112-.478h.247c0 .2-.045.389-.134.578-.09.189-.225.356-.393.5a2 2 0 0 1-.607.345c-.224.1-.483.144-.775.144Zm-1.01-2.657c.224 0 .427 0 .606-.01.18-.012.326-.023.45-.034.145-.011.258-.033.359-.044.01-.067.033-.145.045-.223.01-.078.022-.155.033-.244.012-.09.012-.19.012-.29 0-.3-.023-.555-.068-.755a1.737 1.737 0 0 0-.18-.5c-.067-.123-.145-.223-.247-.267a.667.667 0 0 0-.269-.078.45.45 0 0 0-.27.1c-.09.067-.168.189-.247.356a3.458 3.458 0 0 0-.18.744c-.044.323-.044.734-.044 1.245ZM31.695 2.545a1.2 1.2 0 0 0-.539.123 1.836 1.836 0 0 0-.404.278 2.825 2.825 0 0 0-.326.4v3.701l.607.145v.144h-2.83v-.144l.607-.145V2.645l-.607-.144v-.145h.91c.235 0 .426.045.584.123.146.077.269.166.359.255.1.111.18.234.224.367.101-.144.225-.278.37-.4.124-.1.282-.189.473-.278.19-.089.404-.122.662-.122.36 0 .629.089.808.244.18.167.259.4.259.7 0 .223-.068.412-.202.545-.135.134-.326.2-.55.2h-.158c-.056 0-.09-.01-.123-.01-.045-.012-.09-.012-.124-.034v-1.4ZM37.197 3.846c0-.223-.023-.423-.067-.59a1.109 1.109 0 0 0-.18-.4.55.55 0 0 0-.247-.233.621.621 0 0 0-.27-.078.695.695 0 0 0-.404.122 1.104 1.104 0 0 0-.28.278 2.3 2.3 0 0 0-.225.4v3.702l.606.145v.144H33.3v-.144l.607-.145V2.645l-.606-.144v-.145h.91c.235 0 .426.045.583.122.146.078.27.167.36.256.1.111.18.234.224.367.09-.167.202-.322.337-.456.112-.11.27-.211.449-.311.18-.1.415-.145.685-.145.292 0 .561.045.797.145.247.089.45.222.618.367.168.155.303.322.404.522.101.2.146.4.146.612v3.201l.606.145v.144h-1.314c-.606 0-.909-.3-.909-.9v-2.58ZM1.12 14.36v-.41h7.804v.41l-1.639.412v8.393h5.884v-8.393l-1.64-.412v-.41h7.804v.41l-1.64.412v17.34l1.64.412v.411h-7.804v-.422l1.64-.411v-8.26H7.285v8.26l1.64.411v.411H1.12v-.41l1.639-.412V14.76l-1.64-.4ZM29.034 18.963c1.134 0 2.145.167 3.043.489.898.322 1.65.8 2.28 1.423a6.096 6.096 0 0 1 1.437 2.267c.325.89.494 1.89.494 3.013s-.169 2.123-.494 3.012a6.052 6.052 0 0 1-1.438 2.257 6.222 6.222 0 0 1-2.279 1.423c-.898.322-1.909.489-3.043.489-1.134 0-2.144-.167-3.043-.49a6.13 6.13 0 0 1-2.279-1.422 6.144 6.144 0 0 1-1.437-2.256c-.326-.89-.494-1.89-.494-3.013s.168-2.123.494-3.013a6.188 6.188 0 0 1 1.437-2.267c.629-.634 1.392-1.1 2.28-1.423.898-.322 1.908-.49 3.042-.49Zm0 13.817c.315 0 .618-.1.932-.3.315-.2.584-.545.831-1.045.247-.5.45-1.178.607-2.034.157-.856.235-1.945.235-3.268 0-1.323-.078-2.412-.235-3.268-.158-.856-.36-1.534-.607-2.035-.247-.5-.528-.844-.83-1.044-.304-.2-.618-.3-.933-.3-.314 0-.617.1-.932.3-.314.2-.584.544-.83 1.044-.248.5-.45 1.179-.607 2.035-.157.856-.236 1.945-.236 3.268 0 1.323.079 2.412.236 3.268.157.856.36 1.534.606 2.034.247.5.528.845.831 1.045.315.2.618.3.932.3ZM56.802 23.432c0-.644-.056-1.2-.169-1.634-.112-.433-.247-.8-.426-1.078a2.04 2.04 0 0 0-.573-.611c-.213-.123-.415-.19-.617-.19a1.4 1.4 0 0 0-.921.334 4.37 4.37 0 0 0-.696.745c-.214.322-.416.69-.573 1.078v10.027l1.65.411v.411H46.82v-.41l1.64-.412v-8.67c0-.645-.057-1.201-.17-1.635-.112-.433-.246-.8-.426-1.078a2.04 2.04 0 0 0-.573-.611c-.213-.123-.415-.19-.617-.19a1.4 1.4 0 0 0-.92.334c-.27.222-.495.478-.697.745a5.49 5.49 0 0 0-.573 1.078v10.027l1.64.411v.411h-7.658v-.41l1.64-.412V20.186l-1.64-.41v-.412h2.459c.64 0 1.168.111 1.572.322.415.211.73.456.977.7.27.312.471.645.606 1 .236-.455.528-.855.876-1.222.314-.311.696-.589 1.145-.845.46-.255 1.01-.378 1.673-.378 1.09 0 2.044.245 2.83.723.797.478 1.403 1.1 1.819 1.856.235-.466.527-.889.875-1.278a5.555 5.555 0 0 1 1.146-.89c.46-.266 1.01-.41 1.673-.41.752 0 1.426.122 2.055.355a4.938 4.938 0 0 1 1.605.967c.45.412.797.878 1.044 1.423a4.15 4.15 0 0 1 .371 1.734v8.67l1.64.412v.411h-3.56c-1.64 0-2.459-.811-2.459-2.434v-7.048h-.011ZM71.859 33.324c-2.335 0-4.154-.633-5.446-1.912-1.291-1.278-1.942-3.023-1.942-5.269 0-1.122.168-2.123.494-3.012a6.686 6.686 0 0 1 1.37-2.268 5.696 5.696 0 0 1 2.122-1.423c.83-.322 1.74-.489 2.717-.489 1.022 0 1.943.145 2.751.434.809.289 1.505.678 2.066 1.167.561.489 1 1.067 1.302 1.723.304.656.45 1.356.45 2.1 0 .256-.012.479-.045.668-.034.189-.056.355-.101.5-.056.178-.101.334-.135.456-.809.167-1.65.3-2.549.411-.763.111-1.65.2-2.65.29-1 .077-2.055.121-3.144.121 0 1.123.079 2.057.247 2.802.169.744.393 1.345.685 1.79.292.444.64.755 1.044.944.405.19.843.29 1.314.29.55 0 1.067-.1 1.55-.3.483-.201.898-.468 1.257-.801.36-.334.64-.712.854-1.134.213-.423.314-.856.314-1.29h.685c0 .545-.124 1.067-.37 1.568a4.05 4.05 0 0 1-1.056 1.345c-.46.389-1 .7-1.64.934a6.331 6.331 0 0 1-2.144.355Zm-2.74-7.18c.618 0 1.168-.012 1.64-.045.471-.034.875-.056 1.201-.09.382-.032.707-.077.988-.133.034-.177.079-.378.135-.6.034-.2.067-.422.09-.667.022-.244.045-.5.045-.767 0-.811-.068-1.49-.191-2.045-.124-.556-.292-1-.483-1.345s-.415-.59-.651-.734a1.46 1.46 0 0 0-.73-.222c-.236 0-.483.089-.73.256-.247.177-.46.5-.651.978s-.348 1.156-.483 2.023c-.112.867-.18 2-.18 3.39ZM91.183 32.647V21.653l-9.813-7.692v18.686h9.813ZM103.321 32.647V21.653l-9.656-7.692v18.686h9.656Z" fill="#3C2B4A"/></svg>
